picto/pushchair-right.svg

<svg class="color-immutable" width="24" height="24" viewBox="0 0 24 24" fill="none" xmlns="http://www.w3.org/2000/svg"><path d="M0 22.5V1.5C0 0.675 0.675 0 1.5 0H22.5C23.325 0 24 0.675 24 1.5V22.5C24 23.325 23.325 24 22.5 24H1.5C0.675 24 0 23.325 0 22.5Z" fill="#2D327D"/><path d="M18.68 18.483C18.68 17.033 17.5 15.853 16.05 15.853C14.6 15.853 13.42 17.033 13.42 18.483C13.42 19.933 14.6 21.113 16.05 21.113C17.5 21.113 18.68 19.933 18.68 18.483ZM17.92 18.483C17.92 19.514 17.081 20.353 16.05 20.353C15.019 20.353 14.18 19.514 14.18 18.483C14.18 17.451 15.019 16.612 16.05 16.612C17.081 16.612 17.92 17.451 17.92 18.483Z" fill="white"/><path d="M11.925 18.483C11.925 17.033 10.745 15.853 9.29501 15.853C7.84501 15.853 6.66501 17.033 6.66501 18.483C6.66501 19.933 7.84501 21.113 9.29501 21.113C10.745 21.113 11.925 19.933 11.925 18.483ZM11.166 18.483C11.166 19.514 10.327 20.353 9.29601 20.353C8.26501 20.353 7.42501 19.514 7.42501 18.483C7.42501 17.451 8.26401 16.612 9.29601 16.612C10.327 16.612 11.166 17.451 11.166 18.483Z" fill="white"/><path d="M20.113 9.483C19.886 11.613 19.023 13.553 17.716 15.108H7.56399C6.25699 13.553 5.39399 11.613 5.16699 9.483H20.113Z" fill="white"/><path d="M13.641 8.73299C13.229 8.73299 13.06 8.44099 13.266 8.08399L16.408 2.64099C18.538 3.87399 20.003 6.12799 20.132 8.73299H13.641Z" fill="white"/><path d="M2.925 8.435H7.425V9.035H2.925C2.76 9.035 2.625 8.9 2.625 8.735C2.625 8.57 2.76 8.435 2.925 8.435Z" fill="white"/></svg>

<svg class="color-immutable" width="24" height="24" viewBox="0 0 24 24" fill="none" xmlns="http://www.w3.org/2000/svg"><g clip-path="url(#a)"><path d="M0 22.5v-21C0 .675.675 0 1.5 0h21c.825 0 1.5.675 1.5 1.5v21c0 .825-.675 1.5-1.5 1.5h-21C.675 24 0 23.325 0 22.5Z" fill="#2D327D"/><path d="M18.68 18.483c0-1.45-1.18-2.63-2.63-2.63s-2.63 1.18-2.63 2.63 1.18 2.63 2.63 2.63 2.63-1.18 2.63-2.63Zm-.76 0c0 1.031-.839 1.87-1.87 1.87a1.872 1.872 0 0 1-1.87-1.87c0-1.032.839-1.871 1.87-1.871 1.031 0 1.87.839 1.87 1.871ZM11.925 18.483c0-1.45-1.18-2.63-2.63-2.63s-2.63 1.18-2.63 2.63 1.18 2.63 2.63 2.63 2.63-1.18 2.63-2.63Zm-.759 0c0 1.031-.839 1.87-1.87 1.87a1.873 1.873 0 0 1-1.871-1.87c0-1.032.839-1.871 1.871-1.871 1.031 0 1.87.839 1.87 1.871ZM20.113 9.483a10.45 10.45 0 0 1-2.397 5.625H7.564a10.45 10.45 0 0 1-2.397-5.625h14.946ZM13.641 8.733c-.412 0-.581-.292-.375-.649l3.142-5.443a7.467 7.467 0 0 1 3.724 6.092h-6.491ZM2.925 8.435h4.5v.6h-4.5a.3.3 0 0 1-.3-.3.3.3 0 0 1 .3-.3Z" fill="#fff"/></g><defs><clipPath id="a"><path fill="#fff" d="M0 0h24v24H0z"/></clipPath></defs></svg>
